X:1
T:Tu mi lasci
T:Tu mi lasci
T:Giovanni Ghizzolo
C:Giovanni Ghizzolo
%%score [ 1 2 3 ]
L:1/8
Q:1/4=120
M:4/4
K:C
V:1 treble nm="Soprano" snm="S"
V:2 treble nm="MusicXML Part"
V:3 bass nm="BC" snm="BC"
V:1
"^Editor: André Vierendeels (04/10/08)\nContinuo:""^Source: Madrigali et Arie---Libro terzo---Venetia---A.Raverij.1609." z2 AA A4- | %1
w: Tu mi las-|
 A2 E>D D4 | z2 BB B4- | B2 ^F>E E4 | z2 c2 c4- | c2 B2 B4 | A8 | z2 A4 E2 | E2 F>E G2 G2- | %9
w: * ci cru- del,|tu mi las-|* ci cru- del,|tu m'ab-|* ban- do-|ni,|tu che|dir mi so- le vi|
 GBBB BB d2- | dAAB G4 | A8 :: z4 _B4 | B4 _A4 |"^b" A2 G>F G4 | G4 c4- | c2 cc c3 d | B8 | A8 | %19
w: _ che da- be- gl'oc- chi tuoi|_ la vi- ta be-|vi?|O|_ cor|cru- d'e spie- ta-|to per-|* fi- d'e in- fi-|de-|le,|
 z GAB cd e2- | e2 BB d2 ed | cBcG A4 | B4 z2 c2 | (d2 e6-) | e8- | eGGG ^F4 | E4 z2 B2 | %27
w: Deh _ _ _ _ _|_ co- me poi so- *|* * * * fri-|te la-|sciar _|_|* n'e non mo- ri-|re, la-|
 (c2 d6-) | d8- | dFFF E4 | D8 :| %31
w: sciar _|_|* n'e non mo- ri-|re.|
V:2
 [FA]4 [EA]4 | [E^c]4 [FAd]4 | [GB]4 [^FB]4- | [FB]4 [EGB]4 | [Ec]8 | [EA]4 [E^GB]4 | [EA^c]8 | %7
 [EA]8 | [DA]4 [Ec]4 | [DGB]8 | [FA]4 [EGB]4 | [D^FA]8 :: [D-G_B-]8 | [DB]4 [C_A]4 | %14
 [Fc]4 [E-Gc-]4 | [EGc]8 | G2 F2 [EAc]4 | [E^GB]8 | [EA^c]8 | [EGc]8 | [DGB]8 | [EAc]4 [DA]4 | %22
 [E^G]4 [EA]4- | [EA]8 | [EG]8 | [DG]4 [^DB]4 | [E^GB]4 [=GB]4 | [EA]8- | [EA]4 [DG]4 | %29
 [EAc]4 [Ad]2 [A^c]2 | [^FA]8 :| %31
V:3
 D,4 ^C,4 | A,,4 D,,4 | E,4 ^D,4 | B,,4 E,,4 | A,8 | D,2 ^C,2 E,4 | A,,8 | A,,8 | A,2 D,2 C,4 | %9
 G,,8 | D,4 E,4 | D,8 :: G,,8 | F,,8 | C,8 | C,8 | B,,4 A,,4 | E,8 | A,,8 | C,8 | G,8 | A,4 F,4 | %22
 E,4 A,4 | G,2 F,2 E,2 D,2 | %24
 C,2 B,,2 A,,2 C,2"^Notes: oiginal keys: Ut 1st, Fa 4rth\n           editorial accidentals above the staff" | %25
 B,,8 | E,,4 E,4 | A,,2 B,,2 C,2 D,2 | E,2 F,2 G,2 B,,2 | A,,8 | D,8 :| %31

